X:1
T:Title
%%score 1 ( 2 3 ) 4
L:1/8
M:4/4
K:Bb
V:1 treble nm="Church Organ, Staff"
V:2 treble nm="Grand Piano, Staff-1"
V:3 treble 
V:4 bass nm="Grand Piano, Staff-2"
V:1
 F2 B2- B/ z/ B d2 | B2 B4 G2 | B2 F2 B2 c2 | d2 c6 | F2 B2- B/ z/ B d2 | B2 B4 G2 | B2 F2 B2 d2 | %7
w: By~Fremont~Baptist~Church * * * *|||||||
 c2 B6 | F2 c2- c/ z/ c B2 | c2 d4 d2 | d2 e2 d2 G2 | c2 B4 A2 | F2 B2- B/ z/ B d2 | B2 B4 G2 | %14
w: |||||||
 B2 F2 B2 d2 | c2 B6 |] %16
w: ||
V:2
 F2 B2- B/ z/ B [Fd]2 | [FB]2 [GB]4 [EG]2 | [EB]2 F2 [FB]2 [Fc]2 | [Fd]2 [Fc]6 | %4
 F2 [DB]2- [DB]/ z/ [DB] [Dd]2 | [FB]2 [GB]4 [EG]2 | [EB]2 F2 [DB]2 [Fd]2 | [Ec]2 [DB]6 | %8
 F2 [Fc]2- [Fc]/ z/ [Fc] [FB]2 | [Fc]2 [Fd]4 [Fd]2 | [Fd]2 [Ee]2 [Fd]2 G2 | [Gc]2 B4 A2 | %12
 [EF]2 [DB]2- [DB]/ z/ [DB] [Dd]2 | [FB]2 [GB]4 [EG]2 | [EB]2 F2 [DB]2 [Fd]2 | [Ec]2 [DB]6 |] %16
V:3
 x8 | x8 | x8 | x8 | x8 | x8 | x8 | x8 | x8 | x8 | x8 | z2 F6 | x8 | x8 | x8 | x8 |] %16
V:4
 F,2 B,2- B,/ z/ B, B,2 | [D,B,]2 [E,B,]4 [E,B,]2 | [E,G,]2 [D,B,]2 [D,B,]2 [C,A,]2 | %3
 [B,,B,]2 [F,A,]6 | [F,A,]2 [B,,B,]2- [B,,B,]/ z/ [B,,B,] [B,,F,]2 | [D,B,]2 [E,B,]4 [E,B,]2 | %6
 [E,G,]2 [D,B,]2 [B,,B,]2 [F,B,]2 | [F,A,]2 [B,,B,]6 | F,2 A,2- A,/ z/ A, G,2 | A,2 B,4 B,2 | %10
 B,2 B,2 B,2 B,2 | E2 D4 C2 | A,2 B,2- B,/ z/ B, F,2 | B,2 B,4 B,2 | G,2 B,2 B,2 B,2 | A,2 B,6 |] %16

